X:1
T:Kilavill Jig
M:6/8
L:1/8
S:Dervish - At the End of the Day
R:Jig
Z:John Norvell
K:EDor
d2c |: BEE BEE | Bdf edB | BAF ~F3 | DFA dBA |!
 BEE ~B3 | d2f edB | BAF dAF |1 FED E2D :|2 FED E2B |!
|: e2f ~g3 | ~f3 edB | BAF ~F3 | DFA dBA | !
Bef gfe | fed edB | BAF dAF |1 FED E2D :|2 FED d2c :|3 "next tune" FED A2G :|
